X: 1
T: Bingo  [F]
R: jig
Z: 2009 John Chambers <jc:trillian.mit.edu>
M: 6/8
L: 1/8
K: F
C \
| "F"F2F F2F | F2F F2F | "C7"E2F G2E | C3- C2C \
| "C7"G2G G2G | G2G G2G | "F"F2G A2G | "F"F3- Fz2 |
| "F"A3 F3 | "Bb"B2A G2z | "C7"G3 E3 | "F"A2G F2z \
| "F"A3 F3 | "Bb"B2A G2F | "C7"E2C D2E | "F"F3- Fz2 \
|| "F"F6 | F6 | F6 | F6 | F6- | F3 z2 |]


%%sep 3 1 500

